X:560
T:
S:Efter instrumentmakar Köhler, Visby.
R:vals
O:Gotland, Visby
M:3/4
L:1/8
K:G
dgdBdB|dgdBdB|AcAcAF|GFGABc|dgdBdB|dgdBdB|AcAcAF|
G6::DcDcAF|GFGABG|DcAcAF|GDB,DBc|dgdBdB|dgdBdB|
AcAcAF|G6::BA B2 c2|d4 B2|ABcAFA|GDB,DGA|BA B2 c2|
d4 ge|d2 dBcA|G6:|

